X: 20009
T: Jimmy Allen
R: polka
M: 2/4
K: Dmajor
M:2/4
|:D>E|FD DE|F2 DE/F/|GE EF|GA/G FE|
Dd dB|A2 F>G|AA G/F/E|D2:|
|:FE|Dd dc|B/c/B/A/ GF|Ee- ed|cA A/B/c|
d>e d/c/B|A2 F>G|A/A/A G/F/E|D2:|

